X: 33
T:BRANLE DE BRESSE
M:2/4
L:1/16
Q:160
C:BORJON Trait de la musette 1672
K:C
"A"cBcd e2ed|c2ef d2d2|cBcd e2ed|c2ef d4|cBcd e2ed|c2ef d2d2|cBcd e2ed|c
2ef
 d4|"B"dcde d2e2|c2d2 B4|A2AB c2e2|
dcBA B2G2|dcde d2e2|c2d2 B4|A2AB c2e2|dcdB c4:|
